X:1090
M:2/4
L:1/16
Q:1/4=80
K:G
e2ab c'b`a`g |f2a2`f2d2 |B2G2`B2d2 |ga`bc' d'2b2|c'2ab c'bag|f2a2`f2d2|g4 g4|g6z2:|
d'4  d'e'd'c'|b2b2 a2bd'|c'4  c'4  |a4     z4   |b4    bc'ba|g2b2`g2b2|a4 a4|g6z2:|

